; generated by PrusaSlicer 2.0.0+win64 on 2019-08-04 at 18:42:02

; 

; external perimeters extrusion width = 0.45mm
; perimeters extrusion width = 0.45mm
; infill extrusion width = 0.45mm
; solid infill extrusion width = 0.45mm
; top infill extrusion width = 0.40mm
; first layer extrusion width = 0.70mm

M107
M104 S200 ; set temperature
G28 ; home all axes
G1 Z5 F5000 ; lift nozzle
; Filament gcode
M109 S200 ; set temperature and wait for it to be reached
G21 ; set units to millimeters
G90 ; use absolute coordinates
M82 ; use absolute distances for extrusion
G92 E0
G1 Z0.350 F7800.000
G1 E-2.00000 F2400.00000
G92 E0
G1 X60.277 Y74.862 F7800.000
G1 E2.00000 F2400.00000
G1 F1800
G1 X115.332 Y30.533 E8.42717
G1 X116.803 Y29.500 E8.59067
G1 X118.268 Y28.591 E8.74739
G1 X120.088 Y27.602 E8.93571
G1 X121.975 Y26.735 E9.12459
G1 X125.207 Y25.577 E9.43680
G1 X127.222 Y25.044 E9.62624
G1 X129.243 Y24.653 E9.81343
G1 X132.676 Y24.291 E10.12732
G1 X134.666 Y24.251 E10.30831
G1 X136.642 Y24.337 E10.48817
G1 X138.547 Y24.537 E10.66239
G1 X140.431 Y24.851 E10.83604
G1 X142.418 Y25.312 E11.02154
G1 X144.113 Y25.811 E11.18222
G1 X146.041 Y26.512 E11.36876
G1 X149.141 Y27.948 E11.67935
G1 X150.795 Y28.890 E11.85243
G1 X152.518 Y30.017 E12.03962
G1 X154.037 Y31.154 E12.21215
G1 X155.499 Y32.392 E12.38637
G1 X156.870 Y33.703 E12.55890
G1 X158.165 Y35.099 E12.73199
G1 X159.377 Y36.574 E12.90565
G1 X160.495 Y38.115 E13.07874
G1 X161.581 Y39.828 E13.26311
G1 X163.180 Y42.908 E13.57870
G1 X163.990 Y44.868 E13.77153
G1 X194.794 Y130.599 E22.05495
G1 X195.530 Y132.982 E22.28178
G1 X196.120 Y135.402 E22.50823
G1 X196.562 Y137.840 E22.73355
G1 X196.868 Y140.461 E22.97345
G1 X197.001 Y142.737 E23.18080
G1 X197.004 Y145.022 E23.38862
G1 X196.867 Y147.503 E23.61449
G1 X196.561 Y150.118 E23.85391
G1 X196.115 Y152.574 E24.08092
G1 X195.527 Y154.981 E24.30624
G1 X194.743 Y157.495 E24.54566
G1 X193.935 Y159.640 E24.75405
G1 X193.008 Y161.729 E24.96188
G1 X191.874 Y163.939 E25.18775
G1 X190.530 Y166.203 E25.42717
G1 X189.131 Y168.256 E25.65305
G1 X187.612 Y170.221 E25.87894
G1 X185.891 Y172.181 E26.11610
G1 X184.250 Y173.843 E26.32844
G1 X182.413 Y175.496 E26.55320
G1 X180.485 Y177.033 E26.77739
G1 X178.458 Y178.459 E27.00271
G1 X176.361 Y179.755 E27.22690
G1 X174.184 Y180.926 E27.45166
G1 X171.941 Y181.965 E27.67641
G1 X169.628 Y182.872 E27.90230
G1 X167.289 Y183.631 E28.12593
G1 X164.897 Y184.253 E28.35068
G1 X162.472 Y184.730 E28.57544
G1 X160.022 Y185.062 E28.80020
G1 X157.557 Y185.246 E29.02495
G1 X155.086 Y185.283 E29.24971
G1 X152.617 Y185.172 E29.47446
G1 X150.134 Y184.910 E29.70148
G1 X147.720 Y184.508 E29.92398
G1 X145.286 Y183.952 E30.15099
G1 X17.109 Y149.646 E42.21636
G1 X16.351 Y149.388 E42.28912
G1 X15.638 Y149.039 E42.36132
G1 X14.970 Y148.599 E42.43408
G1 X14.366 Y148.083 E42.50627
G1 X13.559 Y147.126 E42.62010
G1 X12.955 Y146.023 E42.73448
G1 X12.352 Y144.560 E42.87833
G1 X11.593 Y142.371 E43.08898
G1 X10.896 Y139.903 E43.32218
G1 X10.354 Y137.397 E43.55538
G1 X9.977 Y134.929 E43.78237
G1 X9.751 Y132.443 E44.00935
G1 X9.675 Y129.966 E44.23465
G1 X9.750 Y127.446 E44.46389
G1 X9.977 Y124.960 E44.69088
G1 X10.353 Y122.492 E44.91787
G1 X10.887 Y120.016 E45.14826
G1 X11.556 Y117.630 E45.37357
G1 X12.435 Y115.115 E45.61581
G1 X13.272 Y113.220 E45.80418
G1 X13.713 Y112.545 E45.87751
G1 X14.237 Y111.932 E45.95083
G1 X60.230 Y74.900 E51.32012
G1 E49.32012 F2400.00000
G92 E0
G1 X18.415 Y140.755 F7800.000
G1 E2.00000 F2400.00000
G1 F1800
G1 X18.102 Y140.807 E2.02884
G1 X17.909 Y140.251 E2.08237
G1 X17.346 Y138.235 E2.27271
G1 X16.906 Y136.189 E2.46305
G1 X16.591 Y134.119 E2.65337
G1 X16.401 Y132.035 E2.84369
G1 X16.337 Y129.943 E3.03401
G1 X16.401 Y127.851 E3.22433
G1 X16.591 Y125.766 E3.41465
G1 X16.906 Y123.697 E3.60498
G1 X17.346 Y121.651 E3.79531
G1 X17.909 Y119.635 E3.98566
G1 X18.102 Y119.078 E4.03918
G1 X18.415 Y119.131 E4.06802
G1 X18.415 Y120.795 E4.21932
G1 X18.272 Y121.310 E4.26794
G1 X17.855 Y123.208 E4.44461
G1 X17.542 Y125.124 E4.62114
G1 X17.333 Y127.053 E4.79758
G1 X17.229 Y128.990 E4.97395
G1 X17.230 Y130.929 E5.15031
G1 X17.335 Y132.866 E5.32669
G1 X17.546 Y134.795 E5.50313
G1 X17.861 Y136.711 E5.67966
G1 X18.280 Y138.608 E5.85633
G1 X18.415 Y139.093 E5.90208
G1 X18.415 Y140.695 E6.04778
G1 X18.121 Y140.634 F7800.000
G1 E4.04778 F2400.00000
G92 E0
G1 X18.316 Y118.759 F7800.000
G1 E2.00000 F2400.00000
G1 F1800
G1 X18.348 Y118.570 E2.02150
G1 X18.380 Y118.381 E2.04181
G1 X18.412 Y118.191 E2.06094
G1 X18.443 Y118.002 E2.07888
G1 X18.475 Y117.813 E2.09564
G1 X18.507 Y117.623 E2.11122
G1 X18.711 Y116.600 E2.18941
G1 E0.18941 F2400.00000
G92 E0
G1 X18.316 Y141.126 F7800.000
G1 E2.00000 F2400.00000
G1 F1800
G1 X18.498 Y142.209 E2.10937
G1 X18.680 Y143.292 E2.19843
G1 E0.19843 F2400.00000
G92 E0
G1 X115.027 Y69.950 F7800.000
G1 E2.00000 F2400.00000
G1 F1800
G1 X114.226 Y68.775 E2.12927
G1 X113.460 Y67.486 E2.26565
G1 X112.838 Y66.287 E2.38843
G1 X112.259 Y64.986 E2.51790
G1 X111.759 Y63.653 E2.64738
G1 X111.340 Y62.295 E2.77665
G1 X110.988 Y60.837 E2.91303
G1 X110.747 Y59.508 E3.03581
G1 X110.577 Y58.094 E3.16529
G1 X110.492 Y56.673 E3.29476
G1 X110.492 Y55.251 E3.42404
G1 X110.586 Y53.754 E3.56041
G1 X110.747 Y52.414 E3.68319
G1 X111.001 Y51.013 E3.81267
G1 X111.339 Y49.629 E3.94215
G1 X111.759 Y48.269 E4.07163
G1 X112.259 Y46.936 E4.20110
G1 X112.838 Y45.635 E4.33058
G1 X113.493 Y44.373 E4.45986
G1 X114.266 Y43.088 E4.59623
G1 X115.027 Y41.972 E4.71901
G1 X115.898 Y40.846 E4.84849
G1 X116.835 Y39.773 E4.97797
G1 X117.834 Y38.759 E5.10745
G1 X118.892 Y37.806 E5.23692
G1 X120.005 Y36.918 E5.36640
G1 X121.170 Y36.099 E5.49588
G1 X122.381 Y35.350 E5.62536
G1 X123.635 Y34.675 E5.75484
G1 X124.927 Y34.077 E5.88432
G1 X126.253 Y33.557 E6.01380
G1 X127.607 Y33.116 E6.14328
G1 X128.985 Y32.758 E6.27276
G1 X130.382 Y32.483 E6.40223
G1 X131.793 Y32.292 E6.53171
G1 X133.211 Y32.186 E6.66098
G1 X134.711 Y32.168 E6.79736
G1 X136.059 Y32.228 E6.92014
G1 X137.476 Y32.377 E7.04962
G1 X138.880 Y32.610 E7.17910
G1 X140.269 Y32.927 E7.30857
G1 X141.635 Y33.326 E7.43805
G1 X142.976 Y33.807 E7.56753
G1 X144.285 Y34.366 E7.69701
G1 X145.559 Y35.003 E7.82649
G1 X146.792 Y35.715 E7.95597
G1 X147.980 Y36.500 E8.08545
G1 X149.120 Y37.354 E8.21493
G1 X150.206 Y38.275 E8.34441
G1 X151.235 Y39.259 E8.47388
G1 X152.204 Y40.302 E8.60336
G1 X153.108 Y41.402 E8.73284
G1 X153.945 Y42.554 E8.86232
G1 X154.710 Y43.752 E8.99159
G1 X155.437 Y45.064 E9.12797
G1 X156.023 Y46.281 E9.25075
G1 X156.562 Y47.596 E9.38002
G1 X157.043 Y49.017 E9.51639
G1 X157.402 Y50.319 E9.63917
G1 X157.698 Y51.711 E9.76865
G1 X157.910 Y53.120 E9.89813
G1 X158.038 Y54.538 E10.02761
G1 X158.080 Y55.961 E10.15709
G1 X158.038 Y57.384 E10.28656
G1 X157.910 Y58.803 E10.41604
G1 X157.698 Y60.211 E10.54552
G1 X157.402 Y61.603 E10.67500
G1 X157.023 Y62.976 E10.80448
G1 X156.563 Y64.324 E10.93396
G1 X156.023 Y65.641 E11.06344
G1 X155.405 Y66.924 E11.19292
G1 X154.712 Y68.168 E11.32240
G1 X153.945 Y69.368 E11.45187
G1 X153.108 Y70.520 E11.58135
G1 X152.204 Y71.620 E11.71083
G1 X151.235 Y72.663 E11.84031
G1 X150.207 Y73.646 E11.96958
G1 X149.061 Y74.612 E12.10596
G1 X147.980 Y75.422 E12.22874
G1 X146.792 Y76.207 E12.35822
G1 X145.559 Y76.919 E12.48769
G1 X144.287 Y77.555 E12.61697
G1 X142.906 Y78.140 E12.75334
G1 X141.635 Y78.596 E12.87612
G1 X140.269 Y78.995 E13.00560
G1 X138.880 Y79.312 E13.13508
G1 X137.476 Y79.545 E13.26456
G1 X136.059 Y79.694 E13.39403
G1 X134.637 Y79.758 E13.52351
G1 X133.213 Y79.737 E13.65299
G1 X131.793 Y79.630 E13.78247
G1 X130.382 Y79.439 E13.91195
G1 X128.985 Y79.164 E14.04143
G1 X127.607 Y78.806 E14.17091
G1 X126.255 Y78.366 E14.30018
G1 X124.860 Y77.814 E14.43656
G1 X123.635 Y77.247 E14.55933
G1 X122.381 Y76.572 E14.68881
G1 X121.170 Y75.823 E14.81829
G1 X120.005 Y75.004 E14.94777
G1 X118.892 Y74.116 E15.07725
G1 X117.834 Y73.163 E15.20673
G1 X116.836 Y72.150 E15.33600
G1 X115.853 Y71.018 E15.47237
G1 X115.063 Y69.998 E15.58970
G1 X114.532 Y70.332 F7800.000
G1 F1800
G1 X113.698 Y69.111 E15.72415
G1 X112.914 Y67.789 E15.86392
G1 X112.275 Y66.559 E15.99002
G1 X111.681 Y65.223 E16.12290
G1 X111.167 Y63.855 E16.25578
G1 X110.737 Y62.460 E16.38854
G1 X110.377 Y60.966 E16.52831
G1 X110.129 Y59.601 E16.65441
G1 X109.955 Y58.150 E16.78729
G1 X109.867 Y56.692 E16.92017
G1 X109.867 Y55.232 E17.05292
G1 X109.963 Y53.698 E17.19270
G1 X110.129 Y52.321 E17.31880
G1 X110.390 Y50.883 E17.45168
G1 X110.736 Y49.463 E17.58456
G1 X111.167 Y48.067 E17.71744
G1 X111.681 Y46.699 E17.85032
G1 X112.275 Y45.364 E17.98320
G1 X112.948 Y44.068 E18.11595
G1 X113.740 Y42.750 E18.25573
G1 X114.521 Y41.605 E18.38183
G1 X115.415 Y40.449 E18.51471
G1 X116.376 Y39.348 E18.64759
G1 X117.402 Y38.307 E18.78047
G1 X118.488 Y37.329 E18.91335
G1 X119.630 Y36.418 E19.04623
G1 X120.825 Y35.577 E19.17911
G1 X122.069 Y34.809 E19.31199
G1 X123.355 Y34.116 E19.44487
G1 X124.681 Y33.502 E19.57775
G1 X126.042 Y32.968 E19.71063
G1 X127.432 Y32.516 E19.84351
G1 X128.846 Y32.149 E19.97639
G1 X130.280 Y31.866 E20.10927
G1 X131.728 Y31.670 E20.24215
G1 X133.184 Y31.561 E20.37490
G1 X134.721 Y31.542 E20.51468
G1 X136.106 Y31.605 E20.64078
G1 X137.559 Y31.757 E20.77366
G1 X139.001 Y31.997 E20.90654
G1 X140.426 Y32.322 E21.03942
G1 X141.829 Y32.732 E21.17230
G1 X143.204 Y33.225 E21.30518
G1 X144.548 Y33.799 E21.43806
G1 X145.855 Y34.453 E21.57094
G1 X147.121 Y35.183 E21.70382
G1 X148.340 Y35.989 E21.83670
G1 X149.509 Y36.865 E21.96958
G1 X150.624 Y37.810 E22.10246
G1 X151.680 Y38.820 E22.23534
G1 X152.674 Y39.891 E22.36822
G1 X153.603 Y41.020 E22.50110
G1 X154.461 Y42.202 E22.63398
G1 X155.247 Y43.432 E22.76673
G1 X155.992 Y44.777 E22.90651
G1 X156.594 Y46.027 E23.03260
G1 X157.148 Y47.378 E23.16536
G1 X157.640 Y48.834 E23.30514
G1 X158.009 Y50.170 E23.43123
G1 X158.313 Y51.600 E23.56411
G1 X158.531 Y53.045 E23.69699
G1 X158.662 Y54.500 E23.82987
G1 X158.706 Y55.961 E23.96275
G1 X158.662 Y57.422 E24.09563
G1 X158.531 Y58.877 E24.22851
G1 X158.313 Y60.322 E24.36139
G1 X158.009 Y61.752 E24.49427
G1 X157.620 Y63.160 E24.62715
G1 X157.148 Y64.543 E24.76003
G1 X156.594 Y65.895 E24.89291
G1 X155.960 Y67.212 E25.02579
G1 X155.248 Y68.488 E25.15867
G1 X154.461 Y69.720 E25.29155
G1 X153.603 Y70.902 E25.42443
G1 X152.674 Y72.031 E25.55731
G1 X151.680 Y73.102 E25.69019
G1 X150.625 Y74.111 E25.82295
G1 X149.450 Y75.102 E25.96272
G1 X148.340 Y75.934 E26.08882
G1 X147.121 Y76.739 E26.22170
G1 X145.855 Y77.469 E26.35458
G1 X144.549 Y78.122 E26.48734
G1 X143.134 Y78.722 E26.62711
G1 X141.829 Y79.190 E26.75321
G1 X140.426 Y79.600 E26.88609
G1 X139.001 Y79.925 E27.01897
G1 X137.559 Y80.165 E27.15185
G1 X136.106 Y80.317 E27.28473
G1 X134.646 Y80.383 E27.41761
G1 X133.185 Y80.361 E27.55049
G1 X131.728 Y80.252 E27.68337
G1 X130.280 Y80.056 E27.81625
G1 X128.846 Y79.773 E27.94913
G1 X127.432 Y79.406 E28.08201
G1 X126.043 Y78.955 E28.21476
G1 X124.614 Y78.389 E28.35454
G1 X123.355 Y77.806 E28.48064
G1 X122.069 Y77.113 E28.61352
G1 X120.825 Y76.345 E28.74640
G1 X119.630 Y75.504 E28.87928
G1 X118.488 Y74.593 E29.01216
G1 X117.402 Y73.615 E29.14504
G1 X116.377 Y72.575 E29.27779
G1 X115.369 Y71.415 E29.41757
G1 X114.569 Y70.380 E29.53651
G1 X114.038 Y70.715 F7800.000
G1 F1800
G1 X113.171 Y69.447 E29.67614
G1 X112.367 Y68.093 E29.81932
G1 X111.712 Y66.830 E29.94874
G1 X111.102 Y65.461 E30.08502
G1 X110.576 Y64.057 E30.22130
G1 X110.134 Y62.626 E30.35754
G1 X109.765 Y61.095 E30.50072
G1 X109.511 Y59.695 E30.63013
G1 X109.332 Y58.206 E30.76641
G1 X109.242 Y56.710 E30.90269
G1 X109.242 Y55.212 E31.03893
G1 X109.341 Y53.641 E31.18211
G1 X109.511 Y52.228 E31.31153
G1 X109.778 Y50.753 E31.44781
G1 X110.134 Y49.297 E31.58409
G1 X110.576 Y47.865 E31.72037
G1 X111.102 Y46.462 E31.85665
G1 X111.712 Y45.092 E31.99293
G1 X112.402 Y43.762 E32.12917
G1 X113.213 Y42.413 E32.27235
G1 X114.015 Y41.237 E32.40176
G1 X114.932 Y40.051 E32.53805
G1 X115.918 Y38.923 E32.67433
G1 X116.970 Y37.855 E32.81061
G1 X118.084 Y36.852 E32.94689
G1 X119.255 Y35.918 E33.08317
G1 X120.481 Y35.055 E33.21945
G1 X121.756 Y34.267 E33.35573
G1 X123.076 Y33.557 E33.49201
G1 X124.436 Y32.927 E33.62830
G1 X125.831 Y32.379 E33.76458
G1 X127.256 Y31.916 E33.90086
G1 X128.707 Y31.539 E34.03714
G1 X130.177 Y31.250 E34.17342
G1 X131.662 Y31.048 E34.30970
G1 X133.157 Y30.936 E34.44594
G1 X134.731 Y30.917 E34.58912
G1 X136.153 Y30.981 E34.71853
G1 X137.643 Y31.138 E34.85481
G1 X139.122 Y31.383 E34.99110
G1 X140.583 Y31.717 E35.12738
G1 X142.022 Y32.137 E35.26366
G1 X143.433 Y32.643 E35.39994
G1 X144.811 Y33.232 E35.53622
G1 X146.151 Y33.902 E35.67250
G1 X147.449 Y34.652 E35.80878
G1 X148.700 Y35.477 E35.94506
G1 X149.899 Y36.376 E36.08135
G1 X151.042 Y37.345 E36.21763
G1 X152.126 Y38.381 E36.35391
G1 X153.145 Y39.480 E36.49019
G1 X154.097 Y40.637 E36.62647
G1 X154.978 Y41.850 E36.76275
G1 X155.785 Y43.113 E36.89899
G1 X156.548 Y44.490 E37.04217
G1 X157.165 Y45.772 E37.17158
G1 X157.733 Y47.159 E37.30782
G1 X158.238 Y48.650 E37.45100
G1 X158.617 Y50.022 E37.58042
G1 X158.928 Y51.488 E37.71670
G1 X159.152 Y52.970 E37.85298
G1 X159.286 Y54.463 E37.98926
G1 X159.331 Y55.961 E38.12554
G1 X159.286 Y57.459 E38.26182
G1 X159.152 Y58.952 E38.39810
G1 X158.928 Y60.434 E38.53438
G1 X158.617 Y61.900 E38.67066
G1 X158.218 Y63.345 E38.80695
G1 X157.733 Y64.763 E38.94323
G1 X157.165 Y66.150 E39.07951
G1 X156.515 Y67.500 E39.21579
G1 X155.785 Y68.809 E39.35207
G1 X154.978 Y70.072 E39.48835
G1 X154.097 Y71.285 E39.62463
G1 X153.145 Y72.442 E39.76091
G1 X152.126 Y73.541 E39.89720
G1 X151.043 Y74.576 E40.03343
G1 X149.839 Y75.591 E40.17661
G1 X148.700 Y76.445 E40.30603
G1 X147.449 Y77.270 E40.44231
G1 X146.151 Y78.020 E40.57859
G1 X144.811 Y78.690 E40.71483
G1 X143.362 Y79.305 E40.85800
G1 X142.022 Y79.785 E40.98742
G1 X140.583 Y80.205 E41.12370
G1 X139.122 Y80.539 E41.25998
G1 X137.643 Y80.784 E41.39627
G1 X136.153 Y80.941 E41.53255
G1 X134.656 Y81.008 E41.66883
G1 X133.157 Y80.986 E41.80511
G1 X131.662 Y80.874 E41.94139
G1 X130.177 Y80.672 E42.07767
G1 X128.707 Y80.383 E42.21395
G1 X127.256 Y80.006 E42.35023
G1 X125.831 Y79.543 E42.48647
G1 X124.367 Y78.963 E42.62965
G1 X123.076 Y78.365 E42.75907
G1 X121.756 Y77.655 E42.89535
G1 X120.481 Y76.867 E43.03163
G1 X119.255 Y76.004 E43.16791
G1 X118.084 Y75.070 E43.30419
G1 X116.970 Y74.067 E43.44047
G1 X115.918 Y73.000 E43.57671
G1 X114.886 Y71.811 E43.71989
G1 X114.075 Y70.762 E43.84045
G1 X114.200 Y70.349 F7800.000
G1 X115.183 Y69.845
G1 F1800
G1 X120.365 Y75.028 E44.51280
G1 E42.51280 F2400.00000
G92 E0
G1 X122.829 Y76.600 F7800.000
G1 E2.00000 F2400.00000
G1 F1800
G1 X113.625 Y67.396 E3.19401
G1 X112.751 Y65.631 F7800.000
G1 F1800
G1 X124.037 Y76.916 E4.65808
G1 X125.045 Y77.384 E4.76001
G1 X125.625 Y77.613 E4.81721
G1 X112.616 Y64.604 E6.50479
G1 X112.202 Y63.502 E6.61282
G1 X112.112 Y63.209 E6.64096
G1 X127.028 Y78.125 E8.57601
G1 X127.738 Y78.356 E8.64450
G1 X128.295 Y78.500 E8.69729
G1 X111.737 Y61.942 E10.84539
G1 X111.454 Y60.767 E10.95623
G1 X129.468 Y78.781 E13.29316
G1 X130.569 Y78.991 E13.39605
G1 X111.254 Y59.676 E15.90180
G1 X111.116 Y58.646 E15.99713
G1 X131.601 Y79.131 E18.65461
G1 X132.580 Y79.219 E18.74483
G1 X111.021 Y57.660 E21.54170
G1 X110.964 Y56.711 E21.62885
G1 X133.525 Y79.273 E24.55567
G1 X134.430 Y79.286 E24.63870
G1 X110.961 Y55.817 E27.68333
G1 X110.961 Y55.266 E27.73384
G1 X110.981 Y54.945 E27.76332
G1 X135.295 Y79.259 E30.91752
G1 X136.141 Y79.214 E30.99527
G1 X111.033 Y54.106 E34.25244
G1 X111.113 Y53.295 E34.32726
G1 X136.948 Y79.129 E37.67873
G1 X137.737 Y79.027 E37.75170
G1 X111.209 Y52.499 E41.19309
G1 X111.345 Y51.744 E41.26350
G1 X138.501 Y78.900 E44.78641
G1 X139.242 Y78.749 E44.85573
G1 X111.488 Y50.995 E48.45613
G1 X111.663 Y50.278 E48.52380
G1 X139.968 Y78.583 E52.19568
G1 X140.667 Y78.390 E52.26219
G1 X111.847 Y49.571 E56.00084
G1 X112.058 Y48.890 E56.06624
G1 X141.357 Y78.189 E59.86713
G1 X142.019 Y77.960 E59.93145
G1 X112.278 Y48.219 E63.78973
G1 X112.521 Y47.571 E63.85324
G1 X142.676 Y77.725 E67.76510
G1 X143.305 Y77.462 E67.82761
G1 X112.774 Y46.932 E71.78828
G1 X113.049 Y46.315 E71.85023
