;FLAVOR:Marlin
;TIME:1187
;Filament used: 1.11754m
;Layer height: 0.2
;Generated with Cura_SteamEngine 3.6.0
M82 ;absolute extrusion mode
G21 ; set units to millimeters
G90 ; use absolute positioning
M82 ; absolute extrusion mode
M104 S200 ; set extruder temp
M140 S60 ; set bed temp
M190 S60 ; wait for bed temp
M109 S200 ; wait for extruder temp
G28 W ; home all without mesh bed level
G80 ; mesh bed leveling
G92 E0.0 ; reset extruder distance position
G1 Y-3.0 F1000.0 ; go outside print area
G1 X60.0 E9.0 F1000.0 ; intro line
G1 X100.0 E21.5 F1000.0 ; intro line
G92 E0.0 ; reset extruder distance position
G92 E0
G1 F2100 E-0.8
;LAYER_COUNT:64
;LAYER:0
M107
G0 F3600 X106.804 Y98.599 Z0.15
;TYPE:SKIRT
G1 F2100 E0
G1 F1800 X107.013 Y98.374 E0.00766
G1 X118.38 Y87.024 E0.40836
G1 X118.807 Y86.654 E0.42246
G1 X119.282 Y86.348 E0.43655
G1 X119.796 Y86.112 E0.45066
G1 X120.338 Y85.95 E0.46477
G1 X120.897 Y85.867 E0.47887
G1 X121.212 Y85.855 E0.48673
G1 X132.635 Y85.873 E0.77168
G1 X133.199 Y85.914 E0.78579
G1 X133.752 Y86.034 E0.7999
G1 X134.282 Y86.23 E0.814
G1 X134.779 Y86.5 E0.82811
G1 X135.233 Y86.837 E0.84221
G1 X135.458 Y87.045 E0.84985
G1 X142.952 Y94.542 E1.11428
G1 X143.322 Y94.969 E1.12837
G1 X143.629 Y95.444 E1.14248
G1 X143.865 Y95.958 E1.15659
G1 X144.027 Y96.499 E1.17068
G1 X144.111 Y97.059 E1.1848
G1 X144.123 Y97.363 E1.19239
G1 X144.149 Y112.619 E1.57295
G1 X144.11 Y113.183 E1.58706
G1 X143.992 Y113.736 E1.60116
G1 X143.797 Y114.267 E1.61527
G1 X143.529 Y114.765 E1.62938
G1 X143.194 Y115.22 E1.64348
G1 X142.967 Y115.465 E1.65181
G1 X139.262 Y119.142 E1.78202
G1 X139.061 Y119.328 E1.78885
G1 X135.247 Y122.628 E1.91466
G1 X134.795 Y122.967 E1.92875
G1 X134.299 Y123.238 E1.94285
G1 X133.77 Y123.437 E1.95695
G1 X133.188 Y123.564 E1.97181
G1 X129.367 Y124.102 E2.06807
G1 X128.812 Y124.141 E2.08194
G1 X121.215 Y124.146 E2.27145
G1 X120.651 Y124.106 E2.28556
G1 X120.098 Y123.988 E2.29966
G1 X119.567 Y123.792 E2.31378
G1 X119.07 Y123.524 E2.32787
G1 X118.615 Y123.188 E2.34198
G1 X118.385 Y122.976 E2.34978
G1 X106.995 Y111.601 E2.75133
G1 X106.625 Y111.175 E2.7654
G1 X106.318 Y110.7 E2.77951
G1 X106.081 Y110.186 E2.79363
G1 X105.919 Y109.645 E2.80772
G1 X105.834 Y109.086 E2.82182
G1 X105.822 Y108.762 E2.82991
G1 X105.839 Y101.196 E3.01864
G1 X105.88 Y100.632 E3.03275
G1 X106.001 Y100.08 E3.04685
G1 X106.197 Y99.55 E3.06094
G1 X106.467 Y99.053 E3.07505
G1 X106.804 Y98.599 E3.08916
G0 F3600 X107.295 Y98.658
G1 F1800 X118.662 Y87.308 E3.48986
G1 X119.069 Y86.958 E3.50325
G1 X119.523 Y86.673 E3.51662
G1 X120.015 Y86.458 E3.53001
G1 X120.532 Y86.319 E3.54337
G1 X121.212 Y86.255 E3.56041
G1 X132.635 Y86.273 E3.84535
G1 X133.169 Y86.314 E3.85871
G1 X133.692 Y86.434 E3.8721
G1 X134.191 Y86.63 E3.88547
G1 X134.656 Y86.898 E3.89886
G1 X135.175 Y87.328 E3.91567
G1 X142.669 Y94.825 E4.1801
G1 X143.019 Y95.231 E4.19347
G1 X143.304 Y95.685 E4.20684
G1 X143.519 Y96.177 E4.22024
G1 X143.659 Y96.694 E4.2336
G1 X143.723 Y97.364 E4.25039
G1 X143.749 Y112.62 E4.63095
G1 X143.71 Y113.155 E4.64433
G1 X143.592 Y113.678 E4.6577
G1 X143.397 Y114.178 E4.67109
G1 X143.131 Y114.643 E4.68445
G1 X142.685 Y115.181 E4.70189
G1 X138.98 Y118.858 E4.8321
G1 X138.8 Y119.025 E4.83822
G1 X134.986 Y122.325 E4.96403
G1 X134.555 Y122.645 E4.97742
G1 X134.082 Y122.897 E4.99079
G1 X133.576 Y123.076 E5.00418
G1 X133.132 Y123.168 E5.01549
G1 X129.311 Y123.706 E5.11175
G1 X128.811 Y123.741 E5.12425
G1 X121.214 Y123.746 E5.31376
G1 X120.68 Y123.706 E5.32712
G1 X120.157 Y123.588 E5.34049
G1 X119.657 Y123.393 E5.35388
G1 X119.192 Y123.126 E5.36725
G1 X118.668 Y122.693 E5.38421
G1 X107.278 Y111.318 E5.78576
G1 X106.928 Y110.912 E5.79913
G1 X106.642 Y110.458 E5.81252
G1 X106.427 Y109.967 E5.82589
G1 X106.287 Y109.45 E5.83925
G1 X106.222 Y108.763 E5.85646
G1 X106.239 Y101.197 E6.0452
G1 X106.28 Y100.662 E6.05858
G1 X106.4 Y100.14 E6.07194
G1 X106.597 Y99.641 E6.08532
G1 X106.865 Y99.176 E6.09871
G1 X107.295 Y98.658 E6.11551
G0 F3600 X107.263 Y99.307
G1 F1800 X107.578 Y98.941 E6.12755
G1 X118.945 Y87.591 E6.52825
G1 X119.33 Y87.263 E6.54087
G1 X119.762 Y87 E6.55349
G1 X120.229 Y86.808 E6.56608
G1 X120.721 Y86.692 E6.57869
G1 X121.211 Y86.655 E6.59095
G1 X132.634 Y86.673 E6.8759
G1 X133.138 Y86.714 E6.88851
G1 X133.629 Y86.833 E6.90111
G1 X134.095 Y87.029 E6.91373
G1 X134.525 Y87.295 E6.92634
G1 X134.892 Y87.611 E6.93842
G1 X142.386 Y95.108 E7.20284
G1 X142.714 Y95.492 E7.21544
G1 X142.978 Y95.924 E7.22807
G1 X143.17 Y96.392 E7.24069
G1 X143.286 Y96.884 E7.2533
G1 X143.323 Y97.365 E7.26533
G1 X143.349 Y112.621 E7.64589
G1 X143.31 Y113.125 E7.6585
G1 X143.192 Y113.616 E7.6711
G1 X142.998 Y114.083 E7.68372
G1 X142.733 Y114.514 E7.69634
G1 X142.403 Y114.897 E7.70895
G1 X138.698 Y118.574 E7.83916
G1 X138.538 Y118.723 E7.84461
G1 X134.724 Y122.023 E7.97042
G1 X134.317 Y122.322 E7.98302
G1 X133.867 Y122.554 E7.99565
G1 X133.387 Y122.712 E8.00826
G1 X133.076 Y122.772 E8.01616
G1 X129.255 Y123.31 E8.11241
G1 X128.811 Y123.341 E8.12351
G1 X121.214 Y123.346 E8.31302
G1 X120.71 Y123.306 E8.32563
G1 X120.219 Y123.188 E8.33823
G1 X119.752 Y122.993 E8.35086
G1 X119.322 Y122.728 E8.36346
G1 X118.951 Y122.41 E8.37564
G1 X107.561 Y111.035 E8.77719
G1 X107.232 Y110.651 E8.78981
G1 X106.969 Y110.22 E8.8024
G1 X106.776 Y109.752 E8.81503
G1 X106.66 Y109.26 E8.82764
G1 X106.622 Y108.764 E8.84005
G1 X106.639 Y101.198 E9.02878
G1 X106.68 Y100.694 E9.0414
G1 X106.8 Y100.203 E9.05401
G1 X106.996 Y99.737 E9.06662
G1 X107.263 Y99.307 E9.07924
G1 F2100 E8.27924
;MESH:test.stl
G0 F3600 X109.54 Y100.537
G0 X110.447 Y101.444
G0 X135.483 Y115.781
G0 X135.529 Y115.869
;TYPE:WALL-INNER
G1 F2100 E9.07924
G1 F1800 X132.359 Y119.039 E9.19107
G1 X128.754 Y119.423 E9.28151
G1 X128.603 Y119.55 E9.28643
G1 X121.45 Y119.556 E9.46486
G1 X117.816 Y115.926 E9.59299
G1 X110.414 Y108.558 E9.85352
G1 X110.41 Y105 E9.94227
G1 X110.429 Y101.437 E10.03115
G1 X114.017 Y97.867 E10.15741
G1 X114.089 Y97.787 E10.1601
G1 X121.45 Y90.445 E10.41944
G1 X125.011 Y90.442 E10.50827
G1 X132.383 Y90.463 E10.69217
G1 X139.546 Y97.628 E10.9449
G1 X139.583 Y101.187 E11.03368
G1 X139.591 Y108.744 E11.22219
G1 X139.585 Y108.773 E11.22293
G1 X139.571 Y112.366 E11.31256
G1 X136.152 Y115.761 E11.43275
G1 X135.529 Y115.869 E11.44852
G0 F3600 X135.722 Y116.241
;TYPE:WALL-OUTER
G1 F1800 X132.542 Y119.422 E11.56072
G1 X128.918 Y119.808 E11.65164
G1 X128.749 Y119.95 E11.65714
G1 X121.284 Y119.956 E11.84336
G1 X117.533 Y116.209 E11.97561
G1 X110.014 Y108.725 E12.24025
G1 X110.01 Y104.998 E12.33322
G1 X110.03 Y101.271 E12.42619
G1 X113.727 Y97.591 E12.55631
G1 X113.792 Y97.519 E12.55873
G1 X121.285 Y90.045 E12.82273
G1 X125.012 Y90.042 E12.91571
G1 X132.55 Y90.063 E13.10374
G1 X139.944 Y97.46 E13.36464
G1 X139.983 Y101.187 E13.45761
G1 X139.991 Y108.786 E13.64717
G1 X139.985 Y108.815 E13.64791
G1 X139.97 Y112.533 E13.74066
G1 X136.345 Y116.133 E13.8681
G1 X135.722 Y116.241 E13.88387
G0 F3600 X135.581 Y116.382
G0 X135.23 Y116.028
G0 X135.34 Y115.506
;TYPE:SKIN
G1 F1800 X132.183 Y118.665 E13.99528
G1 X128.594 Y119.048 E14.08531
G1 X128.46 Y119.16 E14.08967
G1 X121.61 Y119.166 E14.26055
G1 X118.091 Y115.651 E14.38462
G1 X110.804 Y108.398 E14.64109
G1 X110.8 Y105.002 E14.7258
G1 X110.819 Y101.601 E14.81064
G1 X114.3 Y98.136 E14.93316
G1 X114.372 Y98.056 E14.93584
G1 X121.612 Y90.835 E15.19092
G1 X125.011 Y90.832 E15.27571
G1 X132.223 Y90.853 E15.45561
G1 X139.158 Y97.79 E15.7003
G1 X139.193 Y101.187 E15.78504
G1 X139.201 Y108.704 E15.97255
G1 X139.195 Y108.732 E15.97327
G1 X139.181 Y112.202 E16.05983
G1 X135.963 Y115.398 E16.17297
G1 X135.34 Y115.506 E16.18874
G0 F3600 X131.761 Y91.032
G1 F1800 X138.981 Y98.252 E16.44344
G0 F3600 X138.988 Y98.824
G1 F1800 X131.194 Y91.03 E16.7184
G0 F3600 X130.626 Y91.028
G1 F1800 X138.994 Y99.396 E17.0136
G0 F3600 X139 Y99.967
G1 F1800 X130.059 Y91.027 E17.329
G0 F3600 X129.492 Y91.025
G1 F1800 X139.006 Y100.539 E17.66463
G0 F3600 X139.012 Y101.111
G1 F1800 X128.924 Y91.023 E18.02052
G0 F3600 X128.357 Y91.022
G1 F1800 X139.013 Y101.678 E18.39643
G0 F3600 X139.014 Y102.244
G1 F1800 X127.79 Y91.02 E18.79239
G0 F3600 X127.222 Y91.018
G1 F1800 X139.015 Y102.811 E19.20842
G0 F3600 X139.015 Y103.377
G1 F1800 X126.655 Y91.017 E19.64445
G0 F3600 X126.088 Y91.015
G1 F1800 X139.016 Y103.943 E20.10052
G0 F3600 X139.016 Y104.509
G1 F1800 X125.521 Y91.014 E20.5766
G0 F3600 X124.954 Y91.013
G1 F1800 X139.017 Y105.076 E21.07271
G0 F3600 X139.017 Y105.642
G1 F1800 X124.388 Y91.013 E21.58878
G0 F3600 X123.823 Y91.013
G1 F1800 X139.018 Y106.208 E22.12483
G0 F3600 X139.019 Y106.775
G1 F1800 X123.258 Y91.014 E22.68084
G0 F3600 X122.692 Y91.014
G1 F1800 X139.02 Y107.341 E23.25684
G0 F3600 X139.02 Y107.907
G1 F1800 X122.127 Y91.015 E23.85277
G0 F3600 X121.624 Y91.077
G1 F1800 X139.02 Y108.473 E24.46646
G0 F3600 X139.013 Y109.032
G1 F1800 X121.341 Y91.36 E25.08988
G0 F3600 X121.058 Y91.642
G1 F1800 X139.01 Y109.595 E25.72321
G0 F3600 X139.008 Y110.158
G1 F1800 X120.775 Y91.925 E26.36643
G0 F3600 X120.491 Y92.207
G1 F1800 X139.006 Y110.722 E27.01959
G0 F3600 X139.003 Y111.285
G1 F1800 X120.208 Y92.49 E27.68264
G0 F3600 X119.925 Y92.772
G1 F1800 X139.001 Y111.848 E28.35559
G0 F3600 X138.855 Y112.268
G1 F1800 X119.642 Y93.055 E29.03338
G0 F3600 X119.358 Y93.337
G1 F1800 X138.572 Y112.55 E29.71119
G0 F3600 X138.288 Y112.832
G1 F1800 X119.075 Y93.619 E30.38898
G0 F3600 X118.792 Y93.902
G1 F1800 X138.004 Y113.114 E31.06674
G0 F3600 X137.721 Y113.396
G1 F1800 X118.508 Y94.184 E31.74451
G0 F3600 X118.226 Y94.467
G1 F1800 X137.436 Y113.678 E32.42221
G0 F3600 X137.153 Y113.96
G1 F1800 X117.942 Y94.749 E33.09993
G0 F3600 X117.659 Y95.032
G1 F1800 X136.869 Y114.242 E33.77762
G0 F3600 X136.586 Y114.524
G1 F1800 X117.376 Y95.314 E34.4553
G0 F3600 X117.093 Y95.597
G1 F1800 X136.301 Y114.805 E35.13292
G0 F3600 X136.018 Y115.087
G1 F1800 X116.809 Y95.879 E35.81055
G0 F3600 X116.526 Y96.161
G1 F1800 X135.636 Y115.271 E36.4847
G0 F3600 X135.195 Y115.396
G1 F1800 X116.243 Y96.444 E37.15329
G0 F3600 X115.959 Y96.726
G1 F1800 X134.912 Y115.679 E37.82191
G0 F3600 X134.629 Y115.961
G1 F1800 X115.677 Y97.009 E38.49049
G0 F3600 X115.393 Y97.291
G1 F1800 X134.346 Y116.244 E39.15911
G0 F3600 X134.063 Y116.527
G1 F1800 X115.11 Y97.574 E39.82773
G0 F3600 X114.827 Y97.856
G1 F1800 X133.781 Y116.81 E40.49638
G0 F3600 X133.498 Y117.094
G1 F1800 X114.544 Y98.139 E41.16505
G0 F3600 X114.264 Y98.425
G1 F1800 X133.216 Y117.376 E41.83362
G0 F3600 X132.933 Y117.659
G1 F1800 X113.981 Y98.707 E42.5022
G0 F3600 X113.697 Y98.989
G1 F1800 X132.65 Y117.942 E43.17082
G0 F3600 X132.367 Y118.225
G1 F1800 X113.414 Y99.272 E43.83944
G0 F3600 X113.13 Y99.554
G1 F1800 X132.071 Y118.494 E44.50761
G0 F3600 X131.56 Y118.549
G1 F1800 X112.847 Y99.836 E45.16776
G0 F3600 X112.564 Y100.119
G1 F1800 X131.048 Y118.603 E45.81984
G0 F3600 X130.538 Y118.658
G1 F1800 X112.28 Y100.401 E46.46392
G0 F3600 X111.997 Y100.683
G1 F1800 X130.027 Y118.713 E47.09998
G0 F3600 X129.515 Y118.767
G1 F1800 X111.713 Y100.965 E47.72799
G0 F3600 X111.43 Y101.247
G1 F1800 X129.004 Y118.822 E48.34798
G0 F3600 X128.503 Y118.887
G1 F1800 X111.146 Y101.529 E48.96031
G0 F3600 X110.995 Y101.944
G1 F1800 X128.03 Y118.979 E49.56127
G0 F3600 X127.465 Y118.98
G1 F1800 X110.993 Y102.507 E50.14238
G0 F3600 X110.99 Y103.07
G1 F1800 X126.9 Y118.981 E50.70366
G0 F3600 X126.335 Y118.981
G1 F1800 X110.986 Y103.632 E51.24514
G0 F3600 X110.983 Y104.195
G1 F1800 X125.77 Y118.982 E51.76679
G0 F3600 X125.205 Y118.982
G1 F1800 X110.98 Y104.757 E52.26862
G0 F3600 X110.979 Y105.322
G1 F1800 X124.64 Y118.983 E52.75055
G0 F3600 X124.074 Y118.983
G1 F1800 X110.98 Y105.889 E53.21247
G0 F3600 X110.981 Y106.455
G1 F1800 X123.509 Y118.984 E53.65445
G0 F3600 X122.944 Y118.984
G1 F1800 X110.981 Y107.022 E54.07646
G0 F3600 X110.981 Y107.587
G1 F1800 X122.379 Y118.985 E54.47855
G0 F3600 X121.813 Y118.985
G1 F1800 X110.982 Y108.154 E54.86065
M104 S200
G1 X110.912 Y108.084
;MESH:NONMESH
G0 F3600 X124.937 Y103.888
;TIME_ELAPSED:82.953798
;LAYER:1
M140 S60
M106 S255
;MESH:test.stl
G0 F5400 X124.937 Y103.888 Z0.35
;TYPE:WALL-INNER
G1 F2700 X124.802 Y104.073 E54.86826
G1 X124.801 Y104.074 E54.86831
G1 X124.126 Y104.997 E54.90634
G1 X124.801 Y105.918 E54.94432
G1 X124.937 Y106.103 E54.95196
G1 X125.101 Y105.943 E54.9567
G1 X126.069 Y104.998 E55.0017
G1 X125.101 Y104.049 E55.04678
G1 X124.937 Y103.888 E55.05153
G0 F5400 X124.929 Y103.789
G0 X125.884 Y104.768
G0 X135.118 Y115.781
G0 X135.164 Y115.869
G1 F2700 X132.359 Y118.674 E55.18347
G1 X129.167 Y119.014 E55.29024
G1 X128.601 Y119.495 E55.31494
G1 X121.45 Y119.499 E55.55278
G1 X117.897 Y115.951 E55.71979
G1 X114.132 Y112.211 E55.8963
G1 X114.043 Y112.114 E55.90067
G1 X110.473 Y108.558 E56.06827
G1 X110.467 Y105.007 E56.18637
G1 X110.472 Y104.932 E56.18887
G1 X110.488 Y101.438 E56.30509
G1 X114.016 Y97.927 E56.47063
G1 X114.135 Y97.796 E56.47652
G1 X117.897 Y94.052 E56.65305
G1 X121.451 Y90.5 E56.82017
G1 X125.011 Y90.496 E56.93858
G1 X128.785 Y90.504 E57.0641
G1 X128.871 Y90.516 E57.06699
G1 X132.384 Y90.524 E57.18383
G1 X139.488 Y97.628 E57.51798
G1 X139.523 Y101.131 E57.6345
G1 X139.53 Y101.203 E57.63691
G1 X139.536 Y108.759 E57.88822
G1 X139.521 Y108.853 E57.89139
G1 X139.507 Y112.366 E58.00823
G1 X136.152 Y115.697 E58.16548
G1 X135.164 Y115.869 E58.19883
G0 F5400 X135.357 Y116.241
;TYPE:WALL-OUTER
G1 F1800 X132.542 Y119.057 E58.33126
G1 X129.332 Y119.399 E58.43863
G1 X128.748 Y119.895 E58.46412
G1 X121.284 Y119.899 E58.71237
G1 X117.615 Y116.234 E58.88485
G1 X113.837 Y112.482 E59.06195
G1 X113.754 Y112.391 E59.06605
G1 X110.073 Y108.724 E59.23886
G1 X110.067 Y104.997 E59.36282
G1 X110.072 Y104.918 E59.36545
G1 X110.089 Y101.271 E59.48675
G1 X113.727 Y97.65 E59.65748
G1 X113.853 Y97.512 E59.66369
G1 X117.615 Y93.768 E59.84022
G1 X121.285 Y90.1 E60.0128
G1 X125.012 Y90.096 E60.13676
G1 X128.811 Y90.104 E60.26312
G1 X128.899 Y90.116 E60.26607
G1 X132.55 Y90.124 E60.3875
G1 X139.886 Y97.46 E60.73257
G1 X139.923 Y101.111 E60.854
G1 X139.93 Y101.187 E60.85654
G1 X139.936 Y108.788 E61.10935
G1 X139.921 Y108.885 E61.11262
G1 X139.906 Y112.533 E61.23395
G1 X136.345 Y116.069 E61.40086
G1 X135.357 Y116.241 E61.43422
G0 F5400 X135.216 Y116.382
G0 X134.864 Y116.029
G0 X126.109 Y104.998
G0 X124.934 Y103.849
G0 X124.585 Y104.202
G0 X124.987 Y104.497
G1 F1800 X124.851 Y104.683 E61.44188
G1 X124.622 Y104.997 E61.45481
G1 X124.851 Y105.31 E61.46771
G1 X124.987 Y105.495 E61.47535
G1 X125.151 Y105.335 E61.48009
G1 X125.497 Y104.997 E61.49617
G1 X125.152 Y104.658 E61.51226
G1 X124.987 Y104.497 E61.51703
G0 F5400 X124.869 Y104.658
G0 X124.466 Y104.363
G0 X123.643 Y104.997
;TYPE:SKIN
G1 F1800 X124.888 Y106.696 E61.58709
G1 X126.627 Y104.998 E61.66792
G1 X124.888 Y103.294 E61.7489
G1 X123.643 Y104.997 E61.81907
G0 F5400 X118.172 Y94.329
G1 F1800 X121.613 Y90.89 E61.98087
G1 X125.011 Y90.886 E62.09389
G1 X128.759 Y90.894 E62.21855
G1 X128.844 Y90.906 E62.22141
G1 X132.224 Y90.914 E62.33383
G1 X139.1 Y97.79 E62.65725
G1 X139.133 Y101.152 E62.76908
G1 X139.14 Y101.221 E62.77139
G1 X139.146 Y108.724 E63.02094
G1 X139.131 Y108.822 E63.02423
G1 X139.117 Y112.202 E63.13665
G1 X135.963 Y115.334 E63.28449
G1 X134.975 Y115.506 E63.31785
G1 X132.183 Y118.3 E63.44922
G1 X129.006 Y118.639 E63.55549
G1 X128.457 Y119.105 E63.57944
G1 X121.611 Y119.109 E63.80714
G1 X118.172 Y115.675 E63.96878
G1 X114.413 Y111.941 E64.14501
G1 X114.324 Y111.843 E64.14941
G1 X110.863 Y108.396 E64.31187
G1 X110.857 Y105.032 E64.42376
G1 X110.862 Y104.945 E64.42666
G1 X110.878 Y101.602 E64.53785
G1 X114.299 Y98.196 E64.69841
G1 X114.417 Y98.066 E64.70425
G1 X118.172 Y94.329 E64.88045
G0 F5400 X111.055 Y102.208
G1 F1800 X122.194 Y91.068 E65.40442
G0 F5400 X122.76 Y91.068
G1 F1800 X111.052 Y102.776 E65.95513
G0 F5400 X111.049 Y103.345
G1 F1800 X123.327 Y91.067 E66.53265
G0 F5400 X123.893 Y91.066
G1 F1800 X111.046 Y103.913 E67.13693
G0 F5400 X111.044 Y104.482
G1 F1800 X124.459 Y91.066 E67.76795
G0 F5400 X125.025 Y91.066
G1 F1800 X111.036 Y105.054 E68.42593
G0 F5400 X111.037 Y105.619
G1 F1800 X125.59 Y91.066 E69.11046
G0 F5400 X126.154 Y91.068
